usr/share/icons/biglinux-icons-material-dark/22/actions/im-gadugadu.svg

<svg xmlns="http://www.w3.org/2000/svg" viewBox="0 0 22 22">
  <defs id="defs3051">
    <style type="text/css" id="current-color-scheme">
      .ColorScheme-Text {
        color:#dedede;
      }
      </style>
  </defs>
 <path 
     style="fill:currentColor;fill-opacity:1;stroke:none" 
     d="M 10 3 L 10 5.0898438 C 9.0867569 5.2421264 8.2459631 5.5958569 7.5234375 6.109375 L 6.0507812 4.6367188 L 4.6367188 6.0507812 L 6.109375 7.5234375 C 5.5958569 8.2459631 5.2421264 9.0867569 5.0898438 10 L 3 10 L 3 12 L 5.0898438 12 C 5.2421264 12.913243 5.5958569 13.754038 6.109375 14.476562 L 4.6367188 15.949219 L 6.0507812 17.363281 L 7.5234375 15.890625 C 8.2459631 16.404143 9.0867569 16.757874 10 16.910156 L 10 19 L 12 19 L 12 16.910156 C 12.913243 16.757874 13.754038 16.404143 14.476562 15.890625 L 15.949219 17.363281 L 17.363281 15.949219 L 15.890625 14.476562 C 16.404143 13.754038 16.757874 12.913243 16.910156 12 L 19 12 L 19 10 L 16.910156 10 C 16.757874 9.0867569 16.404143 8.2459631 15.890625 7.5234375 L 17.363281 6.0507812 L 15.949219 4.6367188 L 14.476562 6.109375 C 13.754038 5.5958569 12.913243 5.2421264 12 5.0898438 L 12 3 L 10 3 z M 11 6 C 12.363958 6 13.593808 6.5442179 14.494141 7.4238281 L 14.576172 7.5058594 C 15.455782 8.406192 16 9.6360421 16 11 C 16 12.363958 15.455782 13.593808 14.576172 14.494141 L 14.494141 14.576172 C 13.593808 15.455782 12.363958 16 11 16 C 9.6360421 16 8.406192 15.455782 7.5058594 14.576172 L 7.4238281 14.494141 C 6.5442179 13.593808 6 12.363958 6 11 C 6 9.6360421 6.5442179 8.406192 7.4238281 7.5058594 L 7.5058594 7.4238281 C 8.406192 6.5442179 9.6360421 6 11 6 z M 9 9 C 8.446 9 8 9.446 8 10 C 8 10.554 8.446 11 9 11 C 9.554 11 10 10.554 10 10 C 10 9.446 9.554 9 9 9 z M 13 9 C 12.446 9 12 9.446 12 10 C 12 10.554 12.446 11 13 11 C 13.554 11 14 10.554 14 10 C 14 9.446 13.554 9 13 9 z M 8.0917969 11.726562 L 7.125 11.96875 A 4 4 0 0 0 11 15 A 4 4 0 0 0 14.876953 11.96875 L 13.90625 11.726562 A 3 3 0 0 1 11 14 A 3 3 0 0 1 8.0917969 11.726562 z "
     class="ColorScheme-Text"
     />
</svg>

<svg xmlns="http://www.w3.org/2000/svg" viewBox="0 0 22 22">
<defs id="defs3051">
<style id="current-color-scheme" type="text/css">
.ColorScheme-Text{color:#dedede}
</style>
</defs>
<path d="M10 3v2.09a5.96 5.96 0 0 0-2.477 1.02L6.051 4.636 4.637 6.05l1.472 1.472A5.96 5.96 0 0 0 5.09 10H3v2h2.09a5.96 5.96 0 0 0 1.02 2.477l-1.473 1.472 1.414 1.414 1.472-1.472A5.96 5.96 0 0 0 10 16.91V19h2v-2.09a5.96 5.96 0 0 0 2.477-1.02l1.472 1.473 1.414-1.414-1.472-1.472A5.96 5.96 0 0 0 16.91 12H19v-2h-2.09a5.96 5.96 0 0 0-1.02-2.477l1.473-1.472-1.414-1.414-1.472 1.472A5.96 5.96 0 0 0 12 5.09V3zm1 3a4.98 4.98 0 0 1 3.494 1.424l.082.082A4.98 4.98 0 0 1 16 11a4.98 4.98 0 0 1-1.424 3.494l-.082.082A4.98 4.98 0 0 1 11 16a4.98 4.98 0 0 1-3.494-1.424l-.082-.082A4.98 4.98 0 0 1 6 11a4.98 4.98 0 0 1 1.424-3.494l.082-.082A4.98 4.98 0 0 1 11 6M9 9c-.554 0-1 .446-1 1s.446 1 1 1 1-.446 1-1-.446-1-1-1m4 0c-.554 0-1 .446-1 1s.446 1 1 1 1-.446 1-1-.446-1-1-1m-4.908 2.727-.967.242A4 4 0 0 0 11 15a4 4 0 0 0 3.877-3.031l-.97-.242A3 3 0 0 1 11 14a3 3 0 0 1-2.908-2.273" class="ColorScheme-Text" style="fill:currentColor;fill-opacity:1;stroke:none"/>
</svg>
